icons/src/scalable/default/status/call-missed-symbolic.svg

<?xml version="1.0" encoding="UTF-8" standalone="no"?>
<svg
   viewBox="0 0 16 16"
   version="1.1"
   id="svg6"
   sodipodi:docname="call-missed-symbolic.svg"
   inkscape:version="1.1.2 (0a00cf5339, 2022-02-04)"
   xmlns:inkscape="http://www.inkscape.org/namespaces/inkscape"
   xmlns:sodipodi="http://sodipodi.sourceforge.net/DTD/sodipodi-0.dtd"
   xmlns="http://www.w3.org/2000/svg"
   xmlns:svg="http://www.w3.org/2000/svg">
  <defs
     id="defs10" />
  <sodipodi:namedview
     id="namedview8"
     pagecolor="#ffffff"
     bordercolor="#666666"
     borderopacity="1.0"
     inkscape:pageshadow="2"
     inkscape:pageopacity="0.0"
     inkscape:pagecheckerboard="0"
     showgrid="false"
     inkscape:zoom="47.5625"
     inkscape:cx="8"
     inkscape:cy="8"
     inkscape:window-width="1904"
     inkscape:window-height="1011"
     inkscape:window-x="0"
     inkscape:window-y="32"
     inkscape:window-maximized="1"
     inkscape:current-layer="svg6" />
  <path
     class="error"
     d="M11.968.998c1.301.294 3.525.732 2.934 2.713-.751 2.516-2.869 4.807-4.621 6.56l-.005.005-.005.005c-1.753 1.752-4.043 3.87-6.56 4.62-1.98.592-2.418-1.632-2.713-2.934l4.203-1.848 1.647.888c.61-.389 1.661-1.364 2.312-2.014.65-.651 1.626-1.703 2.015-2.313L10.12 5.2 11.968.997z"
     style="marker:none;fill:#bebebe;fill-opacity:1"
     color="#000"
     overflow="visible"
     fill="#da1636"
     id="path2" />
  <path
     d="M 7.2735701,2 V 5.703952 H 4.3935857 L 5.5759659,4.5839823 5.0607804,4.0959902 3,6.047995 5.0607804,8 5.5759659,7.5120076 4.3935857,6.3920381 H 8 V 2"
     fill="#bebebe"
     id="path4"
     style="fill:#da1636;fill-opacity:1;stroke-width:0.531834" />
</svg>

<svg version="1.1" viewBox="0 0 16 16" xmlns="http://www.w3.org/2000/svg">
 <path class="error" d="M11.968.998c1.301.294 3.525.732 2.934 2.713-.751 2.516-2.869 4.807-4.621 6.56l-.005.005-.005.005c-1.753 1.752-4.043 3.87-6.56 4.62-1.98.592-2.418-1.632-2.713-2.934l4.203-1.848 1.647.888c.61-.389 1.661-1.364 2.312-2.014.65-.651 1.626-1.703 2.015-2.313L10.12 5.2 11.968.997z" fill="#bebebe" overflow="visible"/>
 <path d="m7.2736 2v3.704h-2.88l1.1824-1.12-0.51519-0.48799-2.0608 1.952 2.0608 1.952 0.51519-0.48799-1.1824-1.12h3.6064v-4.392" fill="#da1636" stroke-width=".53183"/>
</svg>
